assets/wasmer/original.svg

<svg viewBox="0 0 24 24" xmlns="http://www.w3.org/2000/svg" fill="#4946DD"><path d="m18.111 3.537c-.011.822-.5 1.208-1.111.86-.611-.353-1.106-1.307-1.111-2.146l-3.889-2.251v4.651l5.561 3.222.55.32v7.763l3.889 2.25v-12.412l-3.889-2.256zm-5 3.034c-.011.822-.5 1.208-1.111.86-.611-.352-1.106-1.307-1.111-2.145l-3.89-2.252v4.376l5.562 3.222.55.32v8.038l3.889 2.251v-12.413l-3.89-2.258zm-5 2.759c-.011.822-.5 1.208-1.111.86-.611-.353-1.106-1.307-1.111-2.146l-3.889-2.25v12.413l10 5.793v-12.414z"/></svg>

<svg xmlns="http://www.w3.org/2000/svg" fill="#4946dd" viewBox="0 0 24 24"><path d="M18.111 3.537c-.011.822-.5 1.208-1.111.86-.611-.353-1.106-1.307-1.111-2.146L12 0v4.651l5.561 3.222.55.32v7.763L22 18.206V5.794zm-5 3.034c-.011.822-.5 1.208-1.111.86-.611-.352-1.106-1.307-1.111-2.145l-3.89-2.252V7.41l5.562 3.222.55.32v8.038L17 21.241V8.828L13.11 6.57zm-5 2.759c-.011.822-.5 1.208-1.111.86-.611-.353-1.106-1.307-1.111-2.146L2 5.794v12.413L12 24V11.586z"/></svg>
